X:1
T:Title
%%score { 1 | 2 } { 3 | 4 }
L:1/8
M:3/2
K:F
V:1 treble nm="Grand Piano, Staff 1"
V:2 treble 
V:3 bass nm="Choir Pad, Awful Majesty, CM"
V:4 bass 
V:1
 F4 A2 c2 A4 | G3 F D2 F2 F4 | c4 f2 e2 d4 | c2 A2 c8 | c2 de f2 e2 d4 | c4 dcAG F4 | F4 A2 c2 A4 | %7
w: By~Folk~Hymn,~1813 * * *|||||||
 G4 F8 |] %8
w: |
V:2
 C4 F2 A2 F4 | E4 z2 C2 C4 | F4 A2 c2 B4 | A2 F2 E8 | C4 D2 E2 D4 | F4 GFED C4 | z4 F2 C2 C4 | %7
 C4 C8 |] %8
V:3
 F,4 F,2 F,2 A,4 | C4 A,2[K:treble] C2 C4 | A,4 C2 A,2[K:bass] G,4 | F,4 G,8 | A,4 F,2 A,2 G,4 | %5
 A,4[K:treble] D2 C2 C4 | A,2 D2[K:bass] A,2 G,2 F,4 | G,4 A,8 |] %8
V:4
 z4 D,2 C,2 D,4 | C,4 F,2 C,2 F,,4 | F,4 .F,4 z4 | z4 C,8 | F,4 D,2 C,2 D,4 | F,4 B,,2 B,,2 F,4 | %6
 F,4 D,2 E,2 z4 | C,4 [F,,F,]8 |] %8

